!!!COM: Bach, Johann Sebastian
!!!CDT: 1685/02/21/-1750/07/28/
!!!OTL@@DE:	Hast du denn, Jesu, dein Angesicht
!!!SCT: BWV 57/8
!!!PC#:	90
!!!AGN: chorale
**harm	**kern	**kern	**kern	**kern
*	*ICvox	*ICvox	*ICvox	*ICvox
*	*Ibass	*Itenor	*Ialto	*Isoprn
*	*I"Bass	*I"Tenor	*I"Alto	*I"Soprano
*>[A,A,B]	*>[A,A,B]	*>[A,A,B]	*>[A,A,B]	*>[A,A,B]
*>norep[A,B]	*>norep[A,B]	*>norep[A,B]	*>norep[A,B]	*>norep[A,B]
*>A	*>A	*>A	*>A	*>A
*	*	*oclefC4	*oclefC3	*oclefC1
*	*clefF4	*clefGv2	*clefG2	*clefG2
*[b-e-]	*k[b-e-]	*k[b-e-]	*k[b-e-]	*k[b-e-]
*B-:	*B-:	*B-:	*B-:	*B-:
*M3/4	*M3/4	*M3/4	*M3/4	*M3/4
*MM100	*MM100	*MM100	*MM100	*MM100
=1-	=1-	=1-	=1-	=1-
I	4B-	4d	4f	4b-
I	4B-	4d	4f	4b-
V6	4A	4c	4f	4ff
=2	=2	=2	=2	=2
I	4.B-	4.B-	4.f	4.dd
V6	8A	8c	8f	8cc
viio6/V	4G	4e	4g	4b-
=3	=3	=3	=3	=3
V	2F	2f	2c	2a
V2	4E-	4A	4c	4f
=4	=4	=4	=4	=4
I6	4D	4B-	4f	4b-
ii	8CL	8E-L	8gL	8ccL
viio6	8CJ	8E-J	8aJ	8ccJ
I	4BB-	4F	4b-	4dd
=5	=5	=5	=5	=5
V7	2F	2e-	2a	2cc
I;	4BB-;	4d;	4f;	4b-;
=6:|!	=6:|!	=6:|!	=6:|!	=6:|!
*>B	*>B	*>B	*>B	*>B
I	4BB-	4d	4b-	4ff
viio6	4C	4e-	4a	4ee-
I6	4D	4f	4f	4b-
=7	=7	=7	=7	=7
IV;	2E-;	2e-;	2b-;	2gg;
.	4r	4ry	4ry	4r
=8	=8	=8	=8	=8
I	4B-	4f	4b-	4dd
IV6	4G	4g	4b-	4ee-
V	8FL	8cL	8aL	8ffL
V2	8E-J	8cJ	8aJ	8ffJ
=9	=9	=9	=9	=9
I6	2D	2B-	2f	2ff
IV	4E-	4B-	4g	4ee-
=10	=10	=10	=10	=10
I;	2F;	2f;	2a;	2cc;
.	4r	4ry	4ry	4r
=11	=11	=11	=11	=11
I6	4D	4B-	4f	4f
IV6/vi	4E	4G	4c	4g
viio7/vi	4F#	4e-	4c	4a
=12	=12	=12	=12	=12
vi	4G	4d	4B-	4b-
V6	4A	4c	4f	4cc
I	4B-	4B-	4f	4dd
=13	=13	=13	=13	=13
V(54)	4F	4B-	4f	4cc
V7	4F	4A	4e-	4cc
I;	4BB-;	4F;	4d;	4b-;
==	==	==	==	==
*-	*-	*-	*-	*-
!!!YOR1: 371 vierstimmige Choralges&auml;nge von Johann Sebastian Bach, 
!!!YOR2: 4th ed. by Alfred D&ouml;rffel (Leipzig: Breitkopf und H&auml;rtel, 
!!!YOR2: c.1875). 178 pp. Plate "V.A.10".  reprint: J.S. Bach, 371 Four-Part 
!!!YOR4: Chorales (New York: Associated Music Publishers, Inc., c.1940).
!!!SMS: B&H, 4th ed, Alfred D&ouml;rffel, c.1875, plate V.A.10
!!!EED:  Craig Stuart Sapp
!!!EEV:  2009/05/22
